svg/u1f6f4.svg

<svg viewBox="0 0 128 128" xmlns="http://www.w3.org/2000/svg">
  <g>
    <path d="M64.55,9.57c-0.7-5.07-3.76-5.71-5.33-5.55c-1.56,0.16-4.01,0.32-5.5,0.97 c-1.92,0.84-4,3.19-6.06,3.76l-20.6,3.88c-1.41,0.18-3.8-1.18-5.58-0.96c-1.78,0.22-3.6,0.52-4.76,1.14 c-1.28,0.68-2.79,1.94-2.06,6.35c0.71,4.29,3.74,4.74,4.51,4.74c1.29,0,3.29-0.28,4.86-0.8c1.57-0.52,3.84-2.91,5.27-3.17 s20.09-3.79,20.09-3.79c1.88-0.22,3.56,0.52,5.4,1.06c1.75,0.51,5.45-0.14,6.89-0.5S65.31,15.01,64.55,9.57z" fill="#616161"/>
    <path d="M33.28,10.56l7.31-1.32c0.8-0.15,1.67-0.25,2.13,0.45c0,0-2.36,0.99-1.83,4.27 c0.54,3.28,2.61,3.3,2.61,3.3c0,1.21-1.35,1.54-2.5,1.65l-6.33,0.87c-1.02,0.1-2.04-0.31-2.68-1.11c-1.57-1.97-1.45-4.31-0.61-6.3 C31.83,11.31,32.5,10.7,33.28,10.56z" fill="#BDBDBD"/>
    <path d="M35.53,43.8l4.91-26.72c0,0,0.14-1.4-2.66-1.31c-2.8,0.09-2.82,1.28-2.82,1.28l-4.81,26.73 C31.72,43.77,33.71,43.78,35.53,43.8z" fill="#BDBDBD"/>
    <path d="M116.84,113.43l-0.62-6.39c-1.63,0.96-4.87,3.7-6.81,2.43c-1.95-1.27-2.37-6.32-2.37-6.32 l-4.89,3.49c0.04,0.03,5.25,2.05,5.63,4.22c0.53,3.07-3.3,6.41-3.32,6.45l5.31,1.5c-0.47-2.15-0.9-6.01,0.45-6.74 C111.58,111.33,114.47,112.07,116.84,113.43z" fill="#546E7A"/>
    <path d="M107.31,123.85c-7.1,0-12.88-5.78-12.88-12.88s5.78-12.88,12.88-12.88s12.88,5.78,12.88,12.88 S114.41,123.85,107.31,123.85z M108.34,104.37c-3.56,0-6.46,2.9-6.46,6.46s2.9,6.46,6.46,6.46s6.46-2.9,6.46-6.46 S111.91,104.37,108.34,104.37z" fill="#78909C"/>
    <path d="M21.37,89.34c0,0-0.16,1.11-0.7,1.58c-0.36,0.31-1.65,1.01-2.01,1.96c-0.77,2-1.7,11.93-1.7,11.93 l5.72,0.45l2.15-15.35L21.37,89.34z" fill="#1976D2"/>
    <path d="M101.88,99.31c-7.44,3.4-8.38,12.18-6.68,15.99c0,0,1.09,0.58,4.28,0.09 c1.78-0.27,3.39-1.04,3.39-1.04c-0.64-0.77-1.05-1.62-0.99-3.53c0.07-2.1,0.37-3.23,2.85-5.36c0,0-1.88-1.64,1.67-4.09 c3.55-2.46,9.24-0.22,9.24-0.22S109.97,95.62,101.88,99.31z" fill="#455A64"/>
    <path d="M25.59,82.35l13.57,24.95c0.99,2.12,2.86,3.7,5.12,4.33l9.19,2.55L30.74,81.03L25.59,82.35z" fill="#1E4EA6"/>
    <path d="M31.87,115.43l0.61-7.36c-1.56,1.04-5.98,2.8-8.22,1.54c-2.64-1.49-3.72-7.6-3.72-7.6l-4.75,4.8 c0.04,0.04,5.55,2.1,5.93,4.2c0.6,3.38-4.92,6.62-4.95,6.66l6.34,2.63c-0.27-3.8,0.71-6.96,1.71-7.76 C25.82,111.75,31.87,115.43,31.87,115.43z" fill="#546E7A"/>
    <path d="M50.31,103.83l42.8,0.61l4.73,2.2c0,0,5.46,0.1,8.08,0.38c2,0.22,4.73,2.96,4.73,2.96l-57.8,0.55 L50.31,103.83z" fill="#42A5F5"/>
    <path d="M22.01,124c-7.83,0-14.2-6.37-14.2-14.2s6.37-14.2,14.2-14.2s14.2,6.37,14.2,14.2 S29.85,124,22.01,124z M23.34,102.66c-3.93,0-7.13,3.2-7.13,7.13s3.2,7.13,7.13,7.13s7.13-3.2,7.13-7.13S27.27,102.66,23.34,102.66 z" fill="#78909C"/>
    <path d="M110.24,109.75l-3.59-1.08c-0.87-0.28-1.77-0.43-2.69-0.43H59.43c-1.99,0-5.88,0.3-9.32-5.58 L30.84,73.05l5.48-29.84c0.08-0.43-0.09-0.88-0.46-1.13c-0.57-0.39-1.6-0.85-3.25-0.8c-2.8,0.09-2.82,1.28-2.82,1.28l-8.47,47 c-0.18,0.98,0.06,1.98,0.59,2.82c0.44,0.7,0.98,2.69,0.93,3.8c-0.11,2.21-1.67,9.53-1.67,9.53c-0.14,0.75-0.14,1.51,0,2.26 l0.73,4.11c0.26,1.46,2.21,1.77,2.92,0.47l1.98-3.66c0.32-0.59,0.54-1.22,0.66-1.88c0,0,1.32-7.04,1.62-9.99 c0.29-2.94-1.62-5.54-1.62-5.54l1.68-9.12l18.29,26.85c1.78,3.35,5.27,5.45,9.07,5.45l47.4-0.93c0.97,0,1.92-0.16,2.84-0.48 l3.54-1.25C111.31,111.6,111.3,110.12,110.24,109.75z" fill="#1976D2"/>
    <path d="M26.08,91.62c1.17,0.39,1.92,1.65,2.16,2.85c0.15,0.76-0.12,0.7-0.73,0.54 c-0.49-0.13-1.05-0.38-2.88-0.58c-0.45-0.05-1.08-0.15-1.47-0.55c-0.52-0.54-1.23-1.32-1.66-2.06c-0.3-0.51,0.03-0.76,0.28-0.78 C22.06,91.01,23.97,90.93,26.08,91.62z" fill="#42A5F5"/>
    <path d="M117.44,93.9c-5.48-4.31-14.86-3.69-19.95,0.14c-4.34,3.26-7.27,7.79-7.55,12.63h8.9 c2.55-13.78,16.57-10.77,16.57-10.77l3.43,0.55C118.84,96.44,118.71,94.9,117.44,93.9z" fill="#BDBDBD"/>
    <path d="M117.13,95.3c-5.25-1.31-10.36-1.03-14.42,1.8c-3.42,2.39-4.81,5.87-5.64,9.56H100 c0.67-3.47,4.38-12.28,16.91-9.46c0,0,1.43,0.41,1.81-0.37C119.11,96.06,118.51,95.65,117.13,95.3z" fill="#90A4AE"/>
    <ellipse cx="61.21" cy="10.4" rx="3.88" ry="6.14" fill="#757575" transform="matrix(0.9943 -0.1068 0.1068 0.9943 -0.7611 6.5996)"/>
    <path d="M19.82,95.76c0,0,0.23-1.5,0.71-1.86c0.37-0.28,0.74-0.45,1.59,0.42c0.53,0.54,0.72,1.22,0.72,1.3 C22.83,95.61,21.55,95.5,19.82,95.76z" fill="#37474F"/>
  </g>
</svg>

<svg viewBox="0 0 128 128" xmlns="http://www.w3.org/2000/svg">
  <defs/>
  <path d="M64.55,9.57 C63.85,4.5 60.79,3.86 59.22,4.02 C57.66,4.18 55.21,4.34 53.72,4.99 C51.8,5.83 49.72,8.18 47.66,8.75 L27.06,12.63 C25.65,12.81 23.26,11.45 21.48,11.67 C19.7,11.89 17.88,12.19 16.72,12.81 C15.44,13.49 13.93,14.75 14.66,19.16 C15.37,23.45 18.4,23.9 19.17,23.9 C20.46,23.9 22.46,23.62 24.03,23.1 C25.6,22.58 27.87,20.19 29.3,19.93 C30.73,19.67 49.39,16.14 49.39,16.14 C51.27,15.92 52.95,16.66 54.79,17.2 C56.54,17.71 60.24,17.06 61.68,16.7 C63.12,16.34 65.31,15.01 64.55,9.57 Z" fill="#616161"/>
  <path d="M33.28,10.56 L40.59,9.24 C41.39,9.09 42.26,8.99 42.72,9.69 C42.72,9.69 40.36,10.68 40.89,13.96 C41.43,17.24 43.5,17.26 43.5,17.26 C43.5,18.47 42.15,18.8 41,18.91 L34.67,19.78 C33.65,19.88 32.63,19.47 31.99,18.67 C30.42,16.7 30.54,14.36 31.38,12.37 C31.83,11.31 32.5,10.7 33.28,10.56 Z" fill="#BDBDBD"/>
  <path d="M35.53,43.8 L40.44,17.08 C40.44,17.08 40.58,15.68 37.78,15.77 C34.98,15.86 34.96,17.05 34.96,17.05 L30.15,43.78 C31.72,43.77 33.71,43.78 35.53,43.8 Z" fill="#BDBDBD"/>
  <path d="M116.84,113.43 L116.22,107.04 C114.59,108 111.35,110.74 109.41,109.47 C107.46,108.2 107.04,103.15 107.04,103.15 L102.15,106.64 C102.19,106.67 107.4,108.69 107.78,110.86 C108.31,113.93 104.48,117.27 104.46,117.31 L109.77,118.81 C109.3,116.66 108.87,112.8 110.22,112.07 C111.58,111.33 114.47,112.07 116.84,113.43 Z" fill="#546E7A"/>
  <path d="M107.31,123.85 C100.21,123.85 94.43,118.07 94.43,110.97 C94.43,103.87 100.21,98.09 107.31,98.09 C114.41,98.09 120.19,103.87 120.19,110.97 C120.19,118.07 114.41,123.85 107.31,123.85 Z M108.34,104.37 C104.78,104.37 101.88,107.27 101.88,110.83 C101.88,114.39 104.78,117.29 108.34,117.29 C111.9,117.29 114.8,114.39 114.8,110.83 C114.8,107.27 111.91,104.37 108.34,104.37 Z" fill="#78909C"/>
  <path d="M21.37,89.34 C21.37,89.34 21.21,90.45 20.67,90.92 C20.31,91.23 19.02,91.93 18.66,92.88 C17.89,94.88 16.96,104.81 16.96,104.81 L22.68,105.26 L24.83,89.91 L21.37,89.34 Z" fill="#1976D2"/>
  <path d="M101.88,99.31 C94.44,102.71 93.5,111.49 95.2,115.3 C95.2,115.3 96.29,115.88 99.48,115.39 C101.26,115.12 102.87,114.35 102.87,114.35 C102.23,113.58 101.82,112.73 101.88,110.82 C101.95,108.72 102.25,107.59 104.73,105.46 C104.73,105.46 102.85,103.82 106.4,101.37 C109.95,98.91 115.64,101.15 115.64,101.15 C115.64,101.15 109.97,95.62 101.88,99.31 Z" fill="#455A64"/>
  <path d="M25.59,82.35 L39.16,107.3 C40.15,109.42 42.02,111 44.28,111.63 L53.47,114.18 L30.74,81.03 L25.59,82.35 Z" fill="#1E4EA6"/>
  <path d="M31.87,115.43 L32.48,108.07 C30.92,109.11 26.5,110.87 24.26,109.61 C21.62,108.12 20.54,102.01 20.54,102.01 L15.79,106.81 C15.83,106.85 21.34,108.91 21.72,111.01 C22.32,114.39 16.8,117.63 16.77,117.67 L23.11,120.3 C22.84,116.5 23.82,113.34 24.82,112.54 C25.82,111.75 31.87,115.43 31.87,115.43 Z" fill="#546E7A"/>
  <path d="M50.31,103.83 L93.11,104.44 L97.84,106.64 C97.84,106.64 103.3,106.74 105.92,107.02 C107.92,107.24 110.65,109.98 110.65,109.98 L52.85,110.53 L50.31,103.83 Z" fill="#42A5F5"/>
  <path d="M22.01,124 C14.18,124 7.81,117.63 7.81,109.8 C7.81,101.97 14.18,95.6 22.01,95.6 C29.84,95.6 36.21,101.97 36.21,109.8 C36.21,117.63 29.85,124 22.01,124 Z M23.34,102.66 C19.41,102.66 16.21,105.86 16.21,109.79 C16.21,113.72 19.41,116.92 23.34,116.92 C27.27,116.92 30.47,113.72 30.47,109.79 C30.47,105.86 27.27,102.66 23.34,102.66 Z" fill="#78909C"/>
  <path d="M110.24,109.75 L106.65,108.67 C105.78,108.39 104.88,108.24 103.96,108.24 L59.43,108.24 C57.44,108.24 53.55,108.54 50.11,102.66 L30.84,73.05 L36.32,43.21 C36.4,42.78 36.23,42.33 35.86,42.08 C35.29,41.69 34.26,41.23 32.61,41.28 C29.81,41.37 29.79,42.56 29.79,42.56 L21.32,89.56 C21.14,90.54 21.38,91.54 21.91,92.38 C22.35,93.08 22.89,95.07 22.84,96.18 C22.73,98.39 21.17,105.71 21.17,105.71 C21.03,106.46 21.03,107.22 21.17,107.97 L21.9,112.08 C22.16,113.54 24.11,113.85 24.82,112.55 L26.8,108.89 C27.12,108.3 27.34,107.67 27.46,107.01 C27.46,107.01 28.78,99.97 29.08,97.02 C29.37,94.08 27.46,91.48 27.46,91.48 L29.14,82.36 L47.43,109.21 C49.21,112.56 52.7,114.66 56.5,114.66 L103.9,113.73 C104.87,113.73 105.82,113.57 106.74,113.25 L110.28,112 C111.31,111.6 111.3,110.12 110.24,109.75 Z" fill="#1976D2"/>
  <path d="M26.08,91.62 C27.25,92.01 28,93.27 28.24,94.47 C28.39,95.23 28.12,95.17 27.51,95.01 C27.02,94.88 26.46,94.63 24.63,94.43 C24.18,94.38 23.55,94.28 23.16,93.88 C22.64,93.34 21.93,92.56 21.5,91.82 C21.2,91.31 21.53,91.06 21.78,91.04 C22.06,91.01 23.97,90.93 26.08,91.62 Z" fill="#42A5F5"/>
  <path d="M117.44,93.9 C111.96,89.59 102.58,90.21 97.49,94.04 C93.15,97.3 90.22,101.83 89.94,106.67 L98.84,106.67 C101.39,92.89 115.41,95.9 115.41,95.9 L118.84,96.45 C118.84,96.44 118.71,94.9 117.44,93.9 Z" fill="#BDBDBD"/>
  <path d="M117.13,95.3 C111.88,93.99 106.77,94.27 102.71,97.1 C99.29,99.49 97.9,102.97 97.07,106.66 L100,106.66 C100.67,103.19 104.38,94.38 116.91,97.2 C116.91,97.2 118.34,97.61 118.72,96.83 C119.11,96.06 118.51,95.65 117.13,95.3 Z" fill="#90A4AE"/>
  <path d="M65.069,9.989 C65.431,13.36 63.997,16.279 61.866,16.508 C59.736,16.737 57.715,14.189 57.353,10.817 C56.991,7.446 58.424,4.527 60.555,4.298 C62.686,4.069 64.706,6.617 65.069,9.989 Z" fill="#757575"/>
  <path d="M19.82,95.76 C19.82,95.76 20.05,94.26 20.53,93.9 C20.9,93.62 21.27,93.45 22.12,94.32 C22.65,94.86 22.84,95.54 22.84,95.62 C22.83,95.61 21.55,95.5 19.82,95.76 Z" fill="#37474F"/>
</svg>
